images/menu-social-twit.svg

<svg width="24" height="24" viewBox="0 0 24 24" fill="none" xmlns="http://www.w3.org/2000/svg">
<g id="Frame">
<path id="Vector" d="M22.3664 6.37727C21.5856 6.72379 20.7572 6.95084 19.9089 7.05079C20.8028 6.51644 21.4715 5.67495 21.7902 4.68352C20.9504 5.18218 20.0315 5.53353 19.0733 5.72237C18.673 5.29524 18.1893 4.95489 17.6521 4.72244C17.1149 4.49 16.5357 4.37041 15.9503 4.3711C13.5877 4.3711 11.6721 6.28668 11.6721 8.64972C11.6721 8.98458 11.7098 9.31097 11.783 9.62466C8.22705 9.44601 5.07406 7.74294 2.96375 5.15426C2.58313 5.80725 2.38324 6.54982 2.38463 7.30564C2.38463 8.78984 3.13986 10.0996 4.28793 10.8667C3.60849 10.8452 2.94403 10.6616 2.34992 10.3312L2.34949 10.3854C2.34949 12.458 3.82439 14.1869 5.78188 14.5806C5.15158 14.7512 4.49071 14.7761 3.84936 14.6534C4.39419 16.3531 5.97407 17.5905 7.84605 17.6248C6.33059 18.8144 4.45898 19.4596 2.53237 19.4566C2.18736 19.4566 1.84657 19.4362 1.51172 19.3964C3.46797 20.6538 5.74493 21.3212 8.07041 21.3188C15.9406 21.3188 20.2438 14.7995 20.2438 9.14544C20.2438 8.96002 20.24 8.77503 20.2319 8.5913C21.0697 7.98645 21.7926 7.23664 22.3664 6.37727Z" fill="url(#paint0_linear_814_2084)"/>
</g>
<defs>
<linearGradient id="paint0_linear_814_2084" x1="1.51172" y1="4.37109" x2="24.654" y2="17.1884" gradientUnits="userSpaceOnUse">
<stop stop-color="#A088FB"/>
<stop offset="1" stop-color="#B8A6FB"/>
</linearGradient>
</defs>
</svg>

<svg width="24" height="24" fill="none" xmlns="http://www.w3.org/2000/svg"><path d="M22.366 6.377c-.78.347-1.609.574-2.457.674a4.286 4.286 0 0 0 1.881-2.367c-.84.498-1.758.85-2.717 1.038a4.274 4.274 0 0 0-3.123-1.35 4.279 4.279 0 0 0-4.167 5.253 12.148 12.148 0 0 1-8.82-4.47 4.257 4.257 0 0 0-.578 2.15c0 1.485.755 2.795 1.903 3.562a4.265 4.265 0 0 1-1.938-.536v.054a4.282 4.282 0 0 0 3.432 4.196c-.63.17-1.291.195-1.933.072a4.283 4.283 0 0 0 3.997 2.972 8.584 8.584 0 0 1-6.334 1.771A12.107 12.107 0 0 0 8.07 21.32c7.87 0 12.174-6.52 12.174-12.174 0-.185-.004-.37-.012-.554a8.666 8.666 0 0 0 2.134-2.214Z" fill="url(#a)"/><defs><linearGradient id="a" x1="1.512" y1="4.371" x2="24.654" y2="17.188" gradientUnits="userSpaceOnUse"><stop stop-color="#A088FB"/><stop offset="1" stop-color="#B8A6FB"/></linearGradient></defs></svg>
